app/assets/images/text-numbers.svg

<svg enable-background="new 0 0 24 24" viewBox="0 0 24 24" xmlns="http://www.w3.org/2000/svg"><path clip-rule="evenodd" d="m0 1.3h2.7v5.3h-1.4v-4h-1.3zm6.7 2.7c0-.7.6-1.3 1.3-1.3h14.7c.7 0 1.3.6 1.3 1.3s-.6 1.3-1.3 1.3h-14.7c-.7 0-1.3-.6-1.3-1.3zm1.3 6.7c-.7 0-1.3.6-1.3 1.3s.6 1.3 1.3 1.3h14.7c.7 0 1.3-.6 1.3-1.3s-.6-1.3-1.3-1.3zm0 8c-.7 0-1.3.6-1.3 1.3s.6 1.3 1.3 1.3h14.7c.7 0 1.3-.6 1.3-1.3s-.6-1.3-1.3-1.3zm-4.7-9.4h.7v1.3l-2 2.7h2v1.3h-4v-1.3l2.2-2.7h-2.2v-1.3zm-3.3 9.4v-1.3h4v5.3h-4v-1.3h2.7v-.7h-1.4v-1.3h1.3v-.7z" fill-rule="evenodd"/></svg>

<?xml version="1.0" encoding="utf-8"?>
<!-- Generator: Adobe Illustrator 28.3.0, SVG Export Plug-In . SVG Version: 6.00 Build 0)  -->
<svg version="1.1" id="Layer_1" xmlns="http://www.w3.org/2000/svg" xmlns:xlink="http://www.w3.org/1999/xlink" x="0px" y="0px"
	 viewBox="0 0 24 24" style="enable-background:new 0 0 24 24;" xml:space="preserve">
<style type="text/css">
	.st0{fill-rule:evenodd;clip-rule:evenodd;}
</style>
<path class="st0" d="M0,1.3h2.7v5.3H1.3v-4H0V1.3z M6.7,4c0-0.7,0.6-1.3,1.3-1.3h14.7C23.4,2.7,24,3.3,24,4s-0.6,1.3-1.3,1.3H8
	C7.3,5.3,6.7,4.7,6.7,4z M8,10.7c-0.7,0-1.3,0.6-1.3,1.3s0.6,1.3,1.3,1.3h14.7c0.7,0,1.3-0.6,1.3-1.3s-0.6-1.3-1.3-1.3H8z M8,18.7
	c-0.7,0-1.3,0.6-1.3,1.3s0.6,1.3,1.3,1.3h14.7c0.7,0,1.3-0.6,1.3-1.3s-0.6-1.3-1.3-1.3H8z M3.3,9.3H4v1.3l-2,2.7h2v1.3H0v-1.3
	l2.2-2.7H0V9.3H3.3z M0,18.7v-1.3h4v5.3H0v-1.3h2.7v-0.7H1.3v-1.3h1.3v-0.7H0z"/>
</svg>
